img/logos/famous.svg

<?xml version="1.0" encoding="UTF-8" standalone="no"?>
<svg width="256px" height="251px" viewBox="0 0 256 251" version="1.1" xmlns="http://www.w3.org/2000/svg" xmlns:xlink="http://www.w3.org/1999/xlink" preserveAspectRatio="xMinYMin meet">
	<g fill="#000000">
		<path d="M183.515429,102.912 C184.100571,89.088 180.077714,77.9702857 174.665143,69.12 C169.252571,60.2697143 159.305143,51.4194286 148.48,52.4434286 C142.043429,53.0285714 139.190857,55.5885714 137.654857,58.88 C136.118857,62.3177143 135.826286,70.2902857 135.826286,73.5817143 L135.826286,156.891429 C151.625143,154.770286 166.180571,145.773714 175.323429,131.218286 C180.516571,123.026286 183.222857,112.347429 183.515429,102.912"></path>
		<path d="M127.780571,0.0731428571 C57.2708571,0.0731428571 0,56.4662857 0,125.878857 C0,190.390857 49.152,243.419429 112.713143,250.660571 C115.858286,250.806857 117.686857,250.514286 119.149714,249.344 C120.32,248.32 120.832,246.637714 120.832,245.101714 L120.978286,170.130286 C86.528,166.546286 59.0262857,138.093714 59.4651429,103.424 C59.904,70.2171429 82.7977143,43.4468571 113.152,37.3028571 C113.883429,37.1565714 114.468571,37.0102857 114.980571,37.4491429 C115.419429,37.888 115.126857,39.1314286 115.126857,39.1314286 L112.859429,50.2491429 C112.859429,50.2491429 112.713143,50.8342857 112.566857,51.1268571 C112.420571,51.2731429 112.128,51.4194286 111.835429,51.5657143 C98.7428571,55.5885714 86.7474286,64.512 81.0422857,75.3371429 C76.2148571,84.3337143 73.0697143,91.136 73.0697143,103.277714 C73.0697143,129.609143 93.8422857,153.819429 121.197714,157.110857 L121.197714,73.728 C121.197714,65.024 121.636571,54.9302857 126.756571,47.9085714 C130.779429,42.496 137.728,39.2045714 148.699429,39.2045714 C164.498286,39.2045714 183.442286,50.7611429 192.877714,75.8491429 C195.730286,83.3828571 197.558857,92.9645714 197.412571,103.350857 C197.266286,138.093714 170.203429,166.473143 135.899429,170.276571 L135.753143,245.248 C135.753143,247.222857 136.338286,248.685714 137.581714,249.636571 C138.898286,250.660571 140.141714,251.172571 144.018286,250.806857 C145.554286,250.660571 148.260571,250.368 149.284571,250.221714 C209.554286,240.128 255.561143,188.416 255.561143,126.244571 C255.561143,56.4662857 198.290286,0.0731428571 127.780571,0.0731428571"></path>
	</g>
</svg>

<svg width="256" height="251" viewBox="0 0 256 251" xmlns="http://www.w3.org/2000/svg" preserveAspectRatio="xMinYMin meet"><path d="M183.515 102.912c.586-13.824-3.437-24.942-8.85-33.792-5.412-8.85-15.36-17.7-26.185-16.677-6.437.586-9.29 3.146-10.825 6.437-1.536 3.438-1.83 11.41-1.83 14.702v83.31c15.8-2.122 30.356-11.118 39.498-25.674 5.194-8.192 7.9-18.87 8.192-28.306"/><path d="M127.78.073C57.27.073 0 56.466 0 125.88c0 64.51 49.152 117.54 112.713 124.78 3.145.147 4.974-.146 6.437-1.316 1.17-1.024 1.682-2.706 1.682-4.242l.146-74.972c-34.45-3.584-61.952-32.036-61.513-66.706.44-33.207 23.333-59.977 53.687-66.12.73-.147 1.317-.294 1.83.145.437.438.145 1.68.145 1.68l-2.268 11.12s-.147.584-.293.877c-.146.146-.44.292-.732.44-13.092 4.022-25.088 12.945-30.793 23.77-4.827 8.997-7.972 15.8-7.972 27.94 0 26.332 20.772 50.542 48.128 53.834V73.73c0-8.704.44-18.798 5.56-25.82 4.02-5.412 10.97-8.703 21.94-8.703 15.8 0 34.744 11.556 44.18 36.644 2.852 7.533 4.68 17.115 4.535 27.5-.147 34.744-27.21 63.123-61.514 66.927l-.147 74.97c0 1.976.585 3.44 1.83 4.39 1.315 1.024 2.56 1.536 6.435 1.17 1.536-.146 4.243-.44 5.267-.585 60.27-10.094 106.276-61.806 106.276-123.977C255.56 56.465 198.29.073 127.78.073"/></svg>
